packages/ffe-icons/icons/open/300/md/laptop_windows.svg

<svg xmlns="http://www.w3.org/2000/svg" height="24" viewBox="0 -960 960 960" width="24"><path d="M50-184.617q-12.768 0-21.383-8.615Q20-201.848 20-214.616q0-12.769 8.616-21.385 8.615-8.615 21.384-8.615h122.308V-280q-30.308 0-51.308-21t-21-51.307V-727.69q0-30.307 21-51.307 21-21 51.308-21h615.382q30.308 0 51.308 21t21 51.307v375.383q0 30.307-21 51.307-21 21-51.308 21v35.384h122.308q12.769 0 21.384 8.615 8.616 8.616 8.616 21.385 0 12.768-8.616 21.384-8.615 8.615-21.384 8.615H50.001ZM172.31-339.999h615.382q5.385 0 8.847-3.461 3.462-3.462 3.462-8.847V-727.69q0-5.385-3.462-8.847-3.462-3.462-8.847-3.462H172.309q-5.385 0-8.847 3.462Q160-733.075 160-727.69v375.383q0 5.385 3.462 8.847 3.462 3.461 8.847 3.461Zm-12.309 0V-739.999v400Z"/></svg>

<svg xmlns="http://www.w3.org/2000/svg" height="24" viewBox="0 -960 960 960" width="24"><path d="M50-184.62q-12.77 0-21.38-8.61Q20-201.85 20-214.62q0-12.77 8.62-21.38 8.61-8.62 21.38-8.62h122.31V-280Q142-280 121-301q-21-21-21-51.31v-375.38Q100-758 121-779q21-21 51.31-21h615.38Q818-800 839-779q21 21 21 51.31v375.38Q860-322 839-301q-21 21-51.31 21v35.38H910q12.77 0 21.38 8.62 8.62 8.61 8.62 21.38t-8.62 21.39q-8.61 8.61-21.38 8.61H50ZM172.31-340h615.38q5.39 0 8.85-3.46t3.46-8.85v-375.38q0-5.38-3.46-8.85-3.46-3.46-8.85-3.46H172.31q-5.39 0-8.85 3.46-3.46 3.47-3.46 8.85v375.38q0 5.39 3.46 8.85t8.85 3.46ZM160-340v-400 400Z"/></svg>
